symbols/web/not_started/materialsymbolsrounded/not_started_wght500grad200_40px.svg

<svg xmlns="http://www.w3.org/2000/svg" height="40" width="40"><path d="m21.375 25.833 7.583-5.083q.209-.125.334-.312.125-.188.125-.438t-.125-.438q-.125-.187-.334-.354l-7.583-5.041q-.458-.292-.937-.021-.48.271-.48.771v10.125q0 .541.48.812.479.271.937-.021Zm-6.917.875q.709 0 1.23-.5.52-.5.52-1.208V15q0-.708-.52-1.229-.521-.521-1.271-.521-.709 0-1.209.521-.5.521-.5 1.229v10q0 .708.5 1.208t1.25.5ZM20 37.625q-3.708 0-6.938-1.354-3.229-1.354-5.604-3.729t-3.729-5.604Q2.375 23.708 2.375 20q0-3.708 1.354-6.937 1.354-3.23 3.729-5.605 2.375-2.375 5.625-3.729T20 2.375q3.708 0 6.938 1.354 3.229 1.354 5.604 3.729t3.729 5.605q1.354 3.229 1.354 6.937t-1.354 6.938q-1.354 3.229-3.729 5.604t-5.604 3.729q-3.23 1.354-6.938 1.354Zm0-3.708q5.875 0 9.896-4 4.021-4 4.021-9.917 0-5.875-4.021-9.896Q25.875 6.083 20 6.083q-5.875 0-9.896 4-4.021 4-4.021 9.917 0 5.875 4.021 9.896 4.021 4.021 9.896 4.021ZM20 20Z"/></svg>

<svg xmlns="http://www.w3.org/2000/svg" height="40" width="40"><path d="M21.375 25.833 28.958 20.75Q29.167 20.625 29.292 20.438Q29.417 20.25 29.417 20Q29.417 19.75 29.292 19.562Q29.167 19.375 28.958 19.208L21.375 14.167Q20.917 13.875 20.438 14.146Q19.958 14.417 19.958 14.917V25.042Q19.958 25.583 20.438 25.854Q20.917 26.125 21.375 25.833ZM14.458 26.708Q15.167 26.708 15.688 26.208Q16.208 25.708 16.208 25V15Q16.208 14.292 15.688 13.771Q15.167 13.25 14.417 13.25Q13.708 13.25 13.208 13.771Q12.708 14.292 12.708 15V25Q12.708 25.708 13.208 26.208Q13.708 26.708 14.458 26.708ZM20 37.625Q16.292 37.625 13.062 36.271Q9.833 34.917 7.458 32.542Q5.083 30.167 3.729 26.938Q2.375 23.708 2.375 20Q2.375 16.292 3.729 13.063Q5.083 9.833 7.458 7.458Q9.833 5.083 13.083 3.729Q16.333 2.375 20 2.375Q23.708 2.375 26.938 3.729Q30.167 5.083 32.542 7.458Q34.917 9.833 36.271 13.063Q37.625 16.292 37.625 20Q37.625 23.708 36.271 26.938Q34.917 30.167 32.542 32.542Q30.167 34.917 26.938 36.271Q23.708 37.625 20 37.625ZM20 33.917Q25.875 33.917 29.896 29.917Q33.917 25.917 33.917 20Q33.917 14.125 29.896 10.104Q25.875 6.083 20 6.083Q14.125 6.083 10.104 10.083Q6.083 14.083 6.083 20Q6.083 25.875 10.104 29.896Q14.125 33.917 20 33.917ZM20 20Q20 20 20 20Q20 20 20 20Q20 20 20 20Q20 20 20 20Q20 20 20 20Q20 20 20 20Q20 20 20 20Q20 20 20 20Z"/></svg>
